X:44
T:Casually Your's Reel
R:reel
C:Bruce Osborne  -- Nov. 1997
Z:abc by bosborne@kos.net
M:2/4
L:1/8
K:F
A/B/|c/d/c/B/ A/B/A/G/|F/A/c/e/ fe/f/|g/a/g/f/ e/c/d/e/|f/e/f/g/ aA/B/|\
c/d/c/B/ A/B/A/G/|F/A/c/e/ fe/f/|g/a/g/f/ e/c/d/e/|f/e/f/g/ f:|
|:z|C/F/A/c/ d/c/A/c/|f/e/f/g/ f/c/A/c/|B/c/d/c/ B/A/G/F/|E/F/G/A/ GC|\
C/F/A/c/ d/c/A/c/|f/e/f/g/ f/c/A/c/|B/c/d/c/ B/A/G/F/|E/F/G/E/ F:|
